flaticon/music/drumsticks-1.svg

<svg xmlns="http://www.w3.org/2000/svg" width="32" height="32" viewBox="0 0 24 24">
    <path d="M23.691406 21.679688L13.386719 7.613281 14.921875 5.355469C15.242188 4.878906 15.121094 4.21875 14.648438 3.882812 14.171875 3.546875 13.519531 3.648438 13.167969 4.125L12 5.722656 10.828125 4.121094C10.484375 3.65625 9.820312 3.550781 9.347656 3.882812 8.878906 4.21875 8.757812 4.878906 9.078125 5.359375L10.613281 7.613281.308594 21.679688C.0742188 21.996094-.0234375 22.386719.0390625 22.773438.101562 23.164062.316406 23.503906.636719 23.734375.886719 23.910156 1.175781 24 1.472656 24 1.5625 24 1.652344 23.992188 1.738281 23.976562 2.128906 23.902344 2.464844 23.683594 2.683594 23.359375L12 9.65625 21.316406 23.355469C21.535156 23.683594 21.871094 23.902344 22.257812 23.976562 22.347656 23.992188 22.4375 24 22.527344 24 22.824219 24 23.113281 23.910156 23.363281 23.734375 23.683594 23.503906 23.894531 23.164062 23.960938 22.777344 24.023438 22.386719 23.925781 21.996094 23.691406 21.679688zM13.851562 4.625C13.925781 4.523438 14.0625 4.503906 14.164062 4.574219 14.261719 4.644531 14.289062 4.785156 14.222656 4.882812L12.855469 6.890625 12.664062 6.625 12.523438 6.4375zM1.980469 22.882812C1.890625 23.023438 1.75 23.113281 1.585938 23.144531 1.421875 23.175781 1.261719 23.136719 1.125 23.042969.988281 22.945312.902344 22.804688.875 22.640625.847656 22.476562.886719 22.316406.988281 22.179688L11.117188 8.355469 11.488281 8.902344zM23.125 22.640625C23.097656 22.804688 23.011719 22.949219 22.875 23.042969 22.738281 23.140625 22.578125 23.175781 22.414062 23.144531 22.25 23.113281 22.109375 23.023438 22.015625 22.882812L12.511719 8.902344 11.140625 6.890625 9.777344 4.886719C9.710938 4.785156 9.738281 4.644531 9.835938 4.574219 9.875 4.546875 9.921875 4.535156 9.96875 4.535156 10.035156 4.535156 10.105469 4.566406 10.148438 4.625L11.476562 6.4375 12.882812 8.355469 23.011719 22.183594C23.109375 22.316406 23.152344 22.476562 23.125 22.640625zM11.960938 2.871094C12.902344 2.871094 13.839844 2.511719 14.558594 1.796875 14.722656 1.628906 14.722656 1.363281 14.558594 1.199219 14.390625 1.03125 14.125 1.03125 13.960938 1.199219 12.859375 2.300781 11.0625 2.300781 9.960938 1.199219 9.796875 1.03125 9.527344 1.03125 9.363281 1.199219 9.199219 1.363281 9.199219 1.628906 9.363281 1.796875 10.078125 2.511719 11.019531 2.871094 11.960938 2.871094zM5.3125 9.117188C5.394531 9.199219 5.503906 9.242188 5.609375 9.242188 5.71875 9.242188 5.828125 9.199219 5.910156 9.117188 6.390625 8.636719 6.652344 8 6.652344 7.324219 6.652344 6.648438 6.390625 6.011719 5.910156 5.53125 5.746094 5.367188 5.476562 5.367188 5.3125 5.53125 5.148438 5.695312 5.148438 5.964844 5.3125 6.128906 5.632812 6.449219 5.808594 6.875 5.808594 7.324219 5.808594 7.773438 5.632812 8.199219 5.3125 8.519531 5.148438 8.683594 5.148438 8.953125 5.3125 9.117188zM5.3125 9.117188"/>
    <path d="M17.214844 9.242188C17.324219 9.242188 17.433594 9.199219 17.515625 9.117188 17.679688 8.953125 17.679688 8.683594 17.515625 8.519531 16.855469 7.859375 16.855469 6.789062 17.515625 6.128906 17.679688 5.964844 17.679688 5.695312 17.515625 5.53125 17.351562 5.367188 17.082031 5.367188 16.917969 5.53125 15.929688 6.519531 15.929688 8.128906 16.917969 9.117188 17 9.199219 17.109375 9.242188 17.214844 9.242188zM18.90625 8.394531C19.015625 8.394531 19.121094 8.355469 19.207031 8.273438 19.371094 8.105469 19.371094 7.839844 19.207031 7.675781 19.011719 7.480469 19.011719 7.167969 19.207031 6.972656 19.371094 6.808594 19.371094 6.542969 19.207031 6.375 19.039062 6.210938 18.773438 6.210938 18.609375 6.375 18.085938 6.898438 18.085938 7.75 18.609375 8.273438 18.691406 8.355469 18.796875 8.394531 18.90625 8.394531zM11.960938 1.167969C12.367188 1.167969 12.75 1.007812 13.039062.722656 13.203125.554688 13.203125.289062 13.039062.125 12.871094-.0429688 12.605469-.0429688 12.441406.125 12.183594.378906 11.738281.378906 11.480469.125 11.316406-.0429688 11.046875-.0429688 10.882812.125 10.71875.289062 10.71875.554688 10.882812.722656 11.171875 1.007812 11.554688 1.167969 11.960938 1.167969zM9.363281 14.597656C9.199219 14.761719 9.199219 15.03125 9.363281 15.195312 9.527344 15.359375 9.796875 15.359375 9.960938 15.195312 11.0625 14.09375 12.855469 14.09375 13.960938 15.195312 14.042969 15.277344 14.152344 15.320312 14.257812 15.320312 14.367188 15.320312 14.476562 15.277344 14.558594 15.195312 14.722656 15.03125 14.722656 14.761719 14.558594 14.597656 13.125 13.164062 10.796875 13.164062 9.363281 14.597656zM9.363281 14.597656"/>
    <path d="M10.882812 15.671875C10.71875 15.835938 10.71875 16.105469 10.882812 16.269531 10.964844 16.351562 11.074219 16.394531 11.183594 16.394531 11.289062 16.394531 11.398438 16.351562 11.480469 16.269531 11.746094 16.007812 12.175781 16.007812 12.441406 16.269531 12.605469 16.433594 12.871094 16.433594 13.039062 16.269531 13.203125 16.105469 13.203125 15.835938 13.039062 15.671875 12.441406 15.078125 11.476562 15.078125 10.882812 15.671875zM3.695312 8.273438C3.777344 8.355469 3.886719 8.394531 3.992188 8.394531 4.101562 8.394531 4.210938 8.355469 4.292969 8.273438 4.546875 8.019531 4.683594 7.683594 4.683594 7.324219 4.683594 6.964844 4.546875 6.628906 4.292969 6.375 4.125 6.210938 3.859375 6.210938 3.695312 6.375 3.527344 6.542969 3.527344 6.808594 3.695312 6.972656 3.789062 7.066406 3.839844 7.191406 3.839844 7.324219 3.839844 7.457031 3.789062 7.582031 3.695312 7.675781 3.527344 7.839844 3.527344 8.105469 3.695312 8.273438zM3.695312 8.273438"/>
</svg>

<svg xmlns="http://www.w3.org/2000/svg" width="32" height="32" viewBox="0 0 24 24">
    <path d="M23.691 21.68L13.387 7.613l1.535-2.258a1.08 1.08 0 0 0-.274-1.472 1.067 1.067 0 0 0-1.48.242L12 5.723 10.828 4.12a1.08 1.08 0 0 0-1.48-.238c-.47.336-.59.996-.27 1.476l1.535 2.254L.31 21.68a1.444 1.444 0 0 0-.27 1.093c.063.391.277.73.598.961a1.445 1.445 0 0 0 1.101.243c.39-.075.727-.293.946-.618L12 9.656l9.316 13.7a1.45 1.45 0 0 0 2.047.378 1.449 1.449 0 0 0 .328-2.055zm-9.84-17.055a.225.225 0 0 1 .313-.05c.098.07.125.21.059.308L12.855 6.89l-.19-.266-.142-.188zM1.982 22.883a.604.604 0 0 1-.855.16.609.609 0 0 1-.138-.863l10.13-13.825.37.547zm21.144-.242a.6.6 0 0 1-.25.402.588.588 0 0 1-.46.102.607.607 0 0 1-.4-.262l-9.503-13.98L11.14 6.89 9.777 4.887a.233.233 0 0 1 .059-.313.23.23 0 0 1 .133-.039c.066 0 .136.031.18.09l1.328 1.813 1.406 1.917 10.129 13.829c.097.132.14.293.113.457zm0 0M11.96 2.871c.942 0 1.88-.36 2.599-1.074a.424.424 0 0 0 0-.598.417.417 0 0 0-.598 0 2.834 2.834 0 0 1-4 0 .417.417 0 0 0-.598 0 .424.424 0 0 0 0 .598 3.664 3.664 0 0 0 2.598 1.074zm0 0M5.313 9.117a.424.424 0 0 0 .296.125c.11 0 .22-.043.301-.125.48-.48.742-1.117.742-1.793 0-.676-.261-1.312-.742-1.793a.424.424 0 0 0-.598 0 .424.424 0 0 0 0 .598c.32.32.497.746.497 1.195 0 .45-.176.875-.497 1.196a.424.424 0 0 0 0 .597zm0 0"/>
    <path d="M17.215 9.242a.424.424 0 0 0 .3-.723 1.69 1.69 0 0 1 0-2.39.424.424 0 0 0 0-.598.424.424 0 0 0-.597 0 2.54 2.54 0 0 0 0 3.586.424.424 0 0 0 .297.125zm0 0M18.906 8.395c.11 0 .215-.04.301-.122a.424.424 0 0 0 0-.597.495.495 0 0 1 0-.703.424.424 0 0 0 0-.598.424.424 0 0 0-.598 0 1.344 1.344 0 0 0 0 1.898.413.413 0 0 0 .297.122zm0 0M11.96 1.168c.407 0 .79-.16 1.08-.445a.424.424 0 0 0 0-.598.417.417 0 0 0-.599 0 .701.701 0 0 1-.96 0 .417.417 0 0 0-.598 0 .424.424 0 0 0 0 .598c.289.285.672.445 1.078.445zm0 0M9.363 14.598a.424.424 0 0 0 0 .597.424.424 0 0 0 .598 0 2.834 2.834 0 0 1 4 0 .424.424 0 0 0 .297.125.424.424 0 0 0 .3-.723 3.676 3.676 0 0 0-5.195 0zm0 0"/>
    <path d="M10.883 15.672a.424.424 0 0 0 .3.723.424.424 0 0 0 .297-.125.686.686 0 0 1 .961 0c.164.164.43.164.598 0a.424.424 0 0 0 0-.598 1.528 1.528 0 0 0-2.156 0zm0 0M3.695 8.273a.42.42 0 0 0 .297.122c.11 0 .219-.04.301-.122.254-.253.39-.59.39-.949 0-.36-.136-.695-.39-.949a.424.424 0 0 0-.598 0 .417.417 0 0 0 0 .598.493.493 0 0 1 .145.351c0 .133-.05.258-.145.352a.417.417 0 0 0 0 .597zm0 0"/>
</svg>
